!!!!SEGMENT: pl-cz--ii-240--010_zeidler-jozef--stabat-mater-amen.krn
!!!cenid: 18xx:312
!!!COM: Zeidler, Józef
!!!COM-rism: pe30003401
!!!CDT: ~1744-1806
!!!CNT: Polish
!!!OTL: Stabat Mater - Amen
!!!PDT: 1840
!!!AGN: Sacred
!!!SMS-siglum: PL-CZ
!!!SMS-shelfmark: II-240
!!!NIFC-rismID:
!!!URL-scan: http://repozytorium.nifc.pl/skany/pl-cz-nut--ii-240
!!!ONB-nifc: UWAGA: części: Stabat Mater, Quae merebat, Quis est homo,
**kern	**dynam	**kern	**dynam	**kern	**dynam	**kern	**dynam	**kern	**text	**dynam	**kern	**text	**dynam	**kern	**text	**dynam	**kern	**text	**dynam	**kern	**dynam	**kern	**dynam	**kern	**dynam	**kern	**dynam
*part12	*part12	*part11	*part11	*part10	*part10	*part9	*part9	*part8	*part8	*part8	*part7	*part7	*part7	*part6	*part6	*part6	*part5	*part5	*part5	*part4	*part4	*part3	*part3	*part2	*part2	*part1	*part1
*staff12	*	*staff11	*	*staff10	*	*staff9	*	*staff8	*staff8	*	*staff7	*staff7	*	*staff6	*staff6	*	*staff5	*staff5	*	*staff4	*	*staff3	*	*staff2	*	*staff1	*
*I"Organ.	*	*I"Viola	*	*I"Violino 2do	*	*I"Violio 1mo	*	*I"Bas.	*	*	*I"Tenor.	*	*	*I"Alt.	*	*	*I"Cant.	*	*	*I"Corno 2do in F.	*	*I"Corno Imo in F.	*	*I"Clarinetto 2do. in B.	*	*I"Clarinetto Imo in B.	*
*I'Org.	*	*I'V-la	*	*I'V-no II	*	*I'V-no I	*	*I'B.	*	*	*I'T.	*	*	*I'A.	*	*	*I'C.	*	*	*I'C. II in F	*	*I'C. I in F	*	*I'Cl. II in B♭	*	*I'Cl. I in B♭	*
*clefC1	*	*clefC3	*	*clefG2	*	*clefG2	*	*clefF4	*	*	*clefC4	*	*	*clefC3	*	*	*clefC1	*	*	*clefG2	*	*clefG2	*	*clefG2	*	*clefG2	*
*	*	*	*	*	*	*	*	*	*	*	*	*	*	*	*	*	*	*	*	*ITrd4c7	*	*ITrd4c7	*	*ITrd1c2	*	*ITrd1c2	*
*k[b-]	*	*k[b-]	*	*k[b-]	*	*k[b-]	*	*k[b-]	*	*	*k[b-]	*	*	*k[b-]	*	*	*k[b-]	*	*	*k[b-]	*	*k[b-]	*	*k[b-]	*	*k[b-]	*
*M2/2	*	*M2/2	*	*M2/2	*	*M2/2	*	*M2/2	*	*	*M2/2	*	*	*M2/2	*	*	*M2/2	*	*	*M2/2	*	*M2/2	*	*M2/2	*	*M2/2	*
*met(c|)	*	*met(c|)	*	*met(c|)	*	*met(c|)	*	*met(c|)	*	*	*met(c|)	*	*	*met(c|)	*	*	*met(c|)	*	*	*met(c|)	*	*met(c|)	*	*met(c)	*	*met(c|)	*
=1	=1	=1	=1	=1	=1	=1	=1	=1	=1	=1	=1	=1	=1	=1	=1	=1	=1	=1	=1	=1	=1	=1	=1	=1	=1	=1	=1
!	!	!	!	!	!	!	!	!	!	!	!	!	!	!	!	!	!	!	!	!	!	!	!	!LO:TX:a:t=problem&colon; brak znaków przykluczowych	!	!	!
!LO:TX:a:t=Cres	!	!	!	!	!	!LO:TX:a:t=Dolc.	!	!	!	!	!	!	!	!	!	!	!	!	!	!	!	!	!	!LO:TX:a:t=problem&colon; oznaczenie metryczne C	!	!LO:TX:a:t=allo.	!
!LO:TX:a:t=Allo	!	!LO:TX:a:t=allo	!	!LO:TX:a:t=allo	!	!LO:TX:a:t=allo	!	!LO:TX:a:t=allo	!	!	!LO:TX:a:t=allo	!	!	!LO:TX:a:t=allo	!	!	!LO:TX:a:t=allo	!	!	!LO:TX:a:t=allo	!	!LO:TX:a:t=allb	!	!LO:TX:a:t=allb	!	!LO:TX:a:t=problem&colon; wszystkie kaudy w utworze z prawej strony	!
*MM180	*	*MM180	*	*MM180	*	*MM180	*	*MM180	*	*	*MM180	*	*	*MM180	*	*	*MM180	*	*	*MM180	*	*MM180	*	*MM180	*	*MM180	*
!	!	!	!	!	!	!	!	!	!	!	!	!	!	!	!	!	!	!	!	!	!	!	!	!	!	!LO:TX:a:t=[quarter]=180	!
1dd	.	1r	.	1r	.	1dd	f	1r	.	.	1r	.	.	1r	.	.	1dd	A-	f	1r	.	1r	.	1r	.	1r	.
=2	=2	=2	=2	=2	=2	=2	=2	=2	=2	=2	=2	=2	=2	=2	=2	=2	=2	=2	=2	=2	=2	=2	=2	=2	=2	=2	=2
*^	*	*	*	*	*	*	*	*	*	*	*	*	*	*	*	*	*	*	*	*	*	*	*	*	*	*	*
1cc#X	4r	.	1r	.	4r	.	1cc#X	.	1r	.	.	1r	.	.	4r	.	.	1cc#X	-men	.	1r	.	1r	.	1r	.	1r	.
.	4e\	.	.	.	4e/	f	.	.	.	.	.	.	.	.	4e\	A-	.	.	.	.	.	.	.	.	.	.	.	.
.	4a\	.	.	.	4a/	.	.	.	.	.	.	.	.	.	4a\	.	.	.	.	.	.	.	.	.	.	.	.	.
.	4g\	.	.	.	4g/	.	.	.	.	.	.	.	.	.	4g\	.	.	.	.	.	.	.	.	.	.	.	.	.
=3	=3	=3	=3	=3	=3	=3	=3	=3	=3	=3	=3	=3	=3	=3	=3	=3	=3	=3	=3	=3	=3	=3	=3	=3	=3	=3	=3	=3
4dd/	4f\	.	1r	.	4f/	.	4dd\	.	1r	.	.	1r	.	.	4f\	.	.	4dd\	a-	.	1r	.	1r	.	1r	.	1r	.
4cc/	4e\	.	.	.	4e/	.	4cc\	.	.	.	.	.	.	.	4e\	.	.	4cc\	.	.	.	.	.	.	.	.	.	.
4dd/	2d\	.	.	.	2d/	.	4dd\	.	.	.	.	.	.	.	2d\	-men	.	4dd\	.	.	.	.	.	.	.	.	.	.
4ee/	.	.	.	.	.	.	4ee\	.	.	.	.	.	.	.	.	.	.	4ee\	.	.	.	.	.	.	.	.	.	.
=4	=4	=4	=4	=4	=4	=4	=4	=4	=4	=4	=4	=4	=4	=4	=4	=4	=4	=4	=4	=4	=4	=4	=4	=4	=4	=4	=4	=4
2ff/	[1g	.	1r	.	[1g	.	2ff\	.	1r	.	.	1r	.	.	[1g	a-	.	2ff\	.	.	1r	.	1r	.	1r	.	1r	.
4ee/	.	.	.	.	.	.	4ee\	.	.	.	.	.	.	.	.	.	.	4ee\	.	.	.	.	.	.	.	.	.	.
4dd/	.	.	.	.	.	.	4dd\	.	.	.	.	.	.	.	.	.	.	4dd\	.	.	.	.	.	.	.	.	.	.
=5	=5	=5	=5	=5	=5	=5	=5	=5	=5	=5	=5	=5	=5	=5	=5	=5	=5	=5	=5	=5	=5	=5	=5	=5	=5	=5	=5	=5
1cc#X	4g\]	.	1r	.	4g/]	.	1cc#X	.	1r	.	.	1r	.	.	4g\]	.	.	1cc#X	.	.	1r	.	1r	.	1r	.	1r	.
.	4b-\	.	.	.	4b-/	.	.	.	.	.	.	.	.	.	4b-\	.	.	.	.	.	.	.	.	.	.	.	.	.
.	4a\	.	.	.	4a/	.	.	.	.	.	.	.	.	.	4a\	.	.	.	.	.	.	.	.	.	.	.	.	.
.	4g\	.	.	.	4g/	.	.	.	.	.	.	.	.	.	4g\	.	.	.	.	.	.	.	.	.	.	.	.	.
=6	=6	=6	=6	=6	=6	=6	=6	=6	=6	=6	=6	=6	=6	=6	=6	=6	=6	=6	=6	=6	=6	=6	=6	=6	=6	=6	=6	=6
4dd/	1f	.	1r	.	1f	.	4dd\	.	1r	.	.	1r	.	.	1f	.	.	4dd\	.	.	1r	.	1r	.	1r	.	1r	.
4a/	.	.	.	.	.	.	4a/	.	.	.	.	.	.	.	.	.	.	4a\	.	.	.	.	.	.	.	.	.	.
[2dd/	.	.	.	.	.	.	[2dd\	.	.	.	.	.	.	.	.	.	.	[2dd\	.	.	.	.	.	.	.	.	.	.
=7	=7	=7	=7	=7	=7	=7	=7	=7	=7	=7	=7	=7	=7	=7	=7	=7	=7	=7	=7	=7	=7	=7	=7	=7	=7	=7	=7	=7
2dd/]	1e	.	1r	.	1e	.	2dd\]	.	1r	.	.	1r	.	.	1e	.	.	2dd\]	.	.	1r	.	1r	.	1r	.	1r	.
2cc#X/	.	.	.	.	.	.	2cc#X\	.	.	.	.	.	.	.	.	.	.	2cc#X\	.	.	.	.	.	.	.	.	.	.
*v	*v	*	*	*	*	*	*	*	*	*	*	*	*	*	*	*	*	*	*	*	*	*	*	*	*	*	*	*
*clefC4	*	*	*	*	*	*	*	*	*	*	*	*	*	*	*	*	*	*	*	*	*	*	*	*	*	*	*
=8	=8	=8	=8	=8	=8	=8	=8	=8	=8	=8	=8	=8	=8	=8	=8	=8	=8	=8	=8	=8	=8	=8	=8	=8	=8	=8	=8
!	!	!	!	!	!	!	!	!	!	!	!	!	!LO:DY:a	!	!	!	!	!	!	!	!	!	!	!	!	!	!
1d	.	1d	f	2f/	.	4dd\	.	1r	.	.	1d	A-	f	2f\	-men	.	4dd\	.	.	1r	.	1r	.	1r	.	1r	.
.	.	.	.	.	.	4ee\	.	.	.	.	.	.	.	.	.	.	4ee\	.	.	.	.	.	.	.	.	.	.
.	.	.	.	2r	.	4ff\	.	.	.	.	.	.	.	2r	.	.	4ff\	.	.	.	.	.	.	.	.	.	.
.	.	.	.	.	.	4gg\	.	.	.	.	.	.	.	.	.	.	4gg\	.	.	.	.	.	.	.	.	.	.
=9	=9	=9	=9	=9	=9	=9	=9	=9	=9	=9	=9	=9	=9	=9	=9	=9	=9	=9	=9	=9	=9	=9	=9	=9	=9	=9	=9
!	!	!	!	!	!	!	!	!	!	!LO:DY:a	!	!	!	!	!	!	!	!	!	!	!	!	!	!	!	!	!
4c#X\	.	1c#X	.	1e	.	2aa\	.	4r	.	f	1c#X	-men	.	1e	a-	.	2aa\	-men	.	1r	.	1r	.	1r	.	1r	.
*clefF4	*	*	*	*	*	*	*	*	*	*	*	*	*	*	*	*	*	*	*	*	*	*	*	*	*	*	*
4E\	.	.	.	.	.	.	.	4E\	A-	.	.	.	.	.	.	.	.	.	.	.	.	.	.	.	.	.	.
4A\	.	.	.	.	.	2r	.	4A\	.	.	.	.	.	.	.	.	2r	.	.	.	.	.	.	.	.	.	.
4G\	.	.	.	.	.	.	.	4G\	.	.	.	.	.	.	.	.	.	.	.	.	.	.	.	.	.	.	.
=10	=10	=10	=10	=10	=10	=10	=10	=10	=10	=10	=10	=10	=10	=10	=10	=10	=10	=10	=10	=10	=10	=10	=10	=10	=10	=10	=10
4F\	.	4d\	.	4f/	.	1r	.	4F\	.	.	4d\	a-	.	4f\	.	.	1r	.	.	1r	.	1r	.	1r	.	1r	.
4E\	.	4c\	.	4g/	.	.	.	4E\	.	.	4c\	.	.	4g\	.	.	.	.	.	.	.	.	.	.	.	.	.
2D\	.	4d\	.	2a/	.	.	.	2D\	-men	.	4d\	.	.	2a\	.	.	.	.	.	.	.	.	.	.	.	.	.
.	.	4e\	.	.	.	.	.	.	.	.	4e\	.	.	.	.	.	.	.	.	.	.	.	.	.	.	.	.
=11	=11	=11	=11	=11	=11	=11	=11	=11	=11	=11	=11	=11	=11	=11	=11	=11	=11	=11	=11	=11	=11	=11	=11	=11	=11	=11	=11
[1G	.	2f\	.	[1b-	.	1r	.	[1G	a-	.	2f\	.	.	[1b-	.	.	1r	.	.	1r	.	1r	.	1r	.	1r	.
.	.	4e\	.	.	.	.	.	.	.	.	4e\	.	.	.	.	.	.	.	.	.	.	.	.	.	.	.	.
.	.	4d\	.	.	.	.	.	.	.	.	4d\	.	.	.	.	.	.	.	.	.	.	.	.	.	.	.	.
=12	=12	=12	=12	=12	=12	=12	=12	=12	=12	=12	=12	=12	=12	=12	=12	=12	=12	=12	=12	=12	=12	=12	=12	=12	=12	=12	=12
4G\]	.	1c#X	.	2b-/]	.	1r	.	4G\]	.	.	1c#X	.	.	2b-\]	.	.	1ee	a-	.	1r	.	1r	.	1r	.	1r	.
4B-\	.	.	.	.	.	.	.	4B-\	.	.	.	.	.	.	.	.	.	.	.	.	.	.	.	.	.	.	.
4A\	.	.	.	2a/	.	.	.	4A\	.	.	.	.	.	2a\	.	.	.	.	.	.	.	.	.	.	.	.	.
4G\	.	.	.	.	.	.	.	4G\	.	.	.	.	.	.	.	.	.	.	.	.	.	.	.	.	.	.	.
=13	=13	=13	=13	=13	=13	=13	=13	=13	=13	=13	=13	=13	=13	=13	=13	=13	=13	=13	=13	=13	=13	=13	=13	=13	=13	=13	=13
!!pagebreak:original
4F\	.	4d\	.	2a/	.	2r	.	4F\	.	.	4d\	.	.	2a\	-men	.	1dd	.	.	1r	.	1r	.	1r	.	2r	.
4E\	.	4A\	.	.	.	.	.	4E\	.	.	4A\	.	.	.	.	.	.	.	.	.	.	.	.	.	.	.	.
4F\	.	2e\	.	2r	.	2aa\	.	4F\	.	.	2d\	.	.	2r	.	.	.	.	.	.	.	.	.	.	.	2aa\	f
4D\	.	.	.	.	.	.	.	4D\	.	.	.	.	.	.	.	.	.	.	.	.	.	.	.	.	.	.	.
=14	=14	=14	=14	=14	=14	=14	=14	=14	=14	=14	=14	=14	=14	=14	=14	=14	=14	=14	=14	=14	=14	=14	=14	=14	=14	=14	=14
2E\	.	2d\	.	1r	.	2gg#X\	.	2E\	.	.	2d\	.	.	1r	.	.	2bn\	.	.	1r	.	1r	.	1r	.	2gg#X\	.
2A\	.	2cn\	.	.	.	4aa\	.	[2A\	.	.	2cn\	.	.	.	.	.	2cc\	.	.	.	.	.	.	.	.	4aa\	.
.	.	.	.	.	.	4ee\	.	.	.	.	.	.	.	.	.	.	.	.	.	.	.	.	.	.	.	4ee\	.
=15	=15	=15	=15	=15	=15	=15	=15	=15	=15	=15	=15	=15	=15	=15	=15	=15	=15	=15	=15	=15	=15	=15	=15	=15	=15	=15	=15
2A\	.	1Bn	.	1r	.	4dd\	.	2A\]	.	.	1Bn	.	.	1r	.	.	4dd\	.	.	1r	.	1r	.	1r	.	4dd\	.
.	.	.	.	.	.	4cc\	.	.	.	.	.	.	.	.	.	.	4cc\	.	.	.	.	.	.	.	.	4cc\	.
2G#X\	.	.	.	.	.	4dd\	.	2G#X\	.	.	.	.	.	.	.	.	4dd\	.	.	.	.	.	.	.	.	4dd\	.
.	.	.	.	.	.	4ee\	.	.	.	.	.	.	.	.	.	.	4ee\	.	.	.	.	.	.	.	.	4ee\	.
=16	=16	=16	=16	=16	=16	=16	=16	=16	=16	=16	=16	=16	=16	=16	=16	=16	=16	=16	=16	=16	=16	=16	=16	=16	=16	=16	=16
2A\	.	2A/	.	1a	.	4cc\	.	2A\	-men	.	2A\	-men	.	1a	a-	.	4cc\	.	.	1r	.	1r	.	1a	f	4cc\	.
!	!	!	!	!	!	!	!	!	!	!	!	!	!	!	!	!	!	!	!	!	!	!	!	!	!	!LO:TX:a:t=SIC&colon;s=4cc+	!
.	.	.	.	.	.	4bn\	.	.	.	.	.	.	.	.	.	.	4bn\	.	.	.	.	.	.	.	.	4b-\	.
2r	.	2r	.	.	.	4cc\	.	2r	.	.	2r	.	.	.	.	.	4cc\	.	.	.	.	.	.	.	.	4cc\	.
.	.	.	.	.	.	4a/	.	.	.	.	.	.	.	.	.	.	4a\	.	.	.	.	.	.	.	.	4a\	.
=17	=17	=17	=17	=17	=17	=17	=17	=17	=17	=17	=17	=17	=17	=17	=17	=17	=17	=17	=17	=17	=17	=17	=17	=17	=17	=17	=17
!	!	!	!	!	!	!LO:TX:a:t=SIC&colon; s=1bn	!	!	!	!	!	!	!	!	!	!	!	!	!	!	!	!	!	!	!	!LO:TX:a:t=SIC&colon;s=1cc+	!
1E	.	4r	.	1g#X	.	1b-	.	1E	a-	.	4r	.	.	1g#X	-men	.	1bn	.	.	1r	.	1r	.	1g#X	.	1b-	.
!	!	!	!	!	!	!	!	!	!	!	!LO:TX:a:t=SIC&colon;s=4Bn	!	!	!	!	!	!	!	!	!	!	!	!	!	!	!	!
.	.	4Bn\	.	.	.	.	.	.	.	.	4B-\	a-	.	.	.	.	.	.	.	.	.	.	.	.	.	.	.
.	.	4f\	.	.	.	.	.	.	.	.	4e\	.	.	.	.	.	.	.	.	.	.	.	.	.	.	.	.
.	.	4d\	.	.	.	.	.	.	.	.	4d\	.	.	.	.	.	.	.	.	.	.	.	.	.	.	.	.
=18	=18	=18	=18	=18	=18	=18	=18	=18	=18	=18	=18	=18	=18	=18	=18	=18	=18	=18	=18	=18	=18	=18	=18	=18	=18	=18	=18
2AA/	.	4c/	.	4a/	.	2a/	.	2AA/	-men	.	4c\	.	.	4a\	a-	.	2a\	-men	.	1r	.	1r	.	4a\	.	2a\	.
!	!	!LO:TX:a:t=SIC&colon;s=4Bn	!	!	!	!	!	!	!	!	!	!	!	!	!	!	!	!	!	!	!	!	!	!	!	!	!
.	.	4B-/	.	4g/	.	.	.	.	.	.	4Bn\	.	.	4g\	.	.	.	.	.	.	.	.	.	4g\	.	.	.
2r	.	2A/	.	4a/	.	2r	.	2r	.	.	2A\	-men	.	4a\	.	.	2r	.	.	.	.	.	.	4a\	.	2r	.
!	!	!	!	!	!	!	!	!	!	!	!	!	!	!	!	!	!	!	!	!	!	!	!	!LO:TX:a:t=SIC&colon;s=4cc+	!	!	!
.	.	.	.	4bn/	.	.	.	.	.	.	.	.	.	4bn\	.	.	.	.	.	.	.	.	.	4b-\	.	.	.
*clefC4	*	*	*	*	*	*	*	*	*	*	*	*	*	*	*	*	*	*	*	*	*	*	*	*	*	*	*
=19	=19	=19	=19	=19	=19	=19	=19	=19	=19	=19	=19	=19	=19	=19	=19	=19	=19	=19	=19	=19	=19	=19	=19	=19	=19	=19	=19
[1d	.	[1d	.	2cc\	.	[1ff	.	1r	.	.	[1d	a-	.	2cc\	.	.	1a	a-	.	1r	.	1r	.	2cc\	.	1ff	.
!	!	!	!	!	!	!	!	!	!	!	!	!	!	!	!	!	!	!	!	!	!	!	!	!LO:TX:a:t=SIC&colon;s=4cc	!	!	!
.	.	.	.	4b-\	.	.	.	.	.	.	.	.	.	4b-\	.	.	.	.	.	.	.	.	.	4cc#X\	.	.	.
.	.	.	.	4a\	.	.	.	.	.	.	.	.	.	4a\	.	.	.	.	.	.	.	.	.	4a\	.	.	.
=20	=20	=20	=20	=20	=20	=20	=20	=20	=20	=20	=20	=20	=20	=20	=20	=20	=20	=20	=20	=20	=20	=20	=20	=20	=20	=20	=20
!	!	!	!	!	!	!	!	!	!	!	!	!	!	!	!	!	!	!	!	!	!	!	!	!LO:TX:a:t=SIC&colon;s=4cc	!	!	!
4d\]	.	4d\]	.	1g#X	.	2ff\]	.	1r	.	.	4d\]	.	.	1g#X	.	.	1bn	.	.	1r	.	1r	.	1a	.	2ff\	.
4f\	.	4f\	.	.	.	.	.	.	.	.	4f\	.	.	.	.	.	.	.	.	.	.	.	.	.	.	.	.
4e\	.	4e\	.	.	.	2ee\	.	.	.	.	4e\	.	.	.	.	.	.	.	.	.	.	.	.	.	.	2ee\	.
4d\	.	4d\	.	.	.	.	.	.	.	.	4d\	.	.	.	.	.	.	.	.	.	.	.	.	.	.	.	.
=21	=21	=21	=21	=21	=21	=21	=21	=21	=21	=21	=21	=21	=21	=21	=21	=21	=21	=21	=21	=21	=21	=21	=21	=21	=21	=21	=21
!	!	!	!	!	!	!	!	!	!	!	!	!	!	!	!	!	!	!	!	!	!	!	!	!	!	!LO:TX:a:t=SIC&colon;s=2ff	!
4c\	.	4c\	.	4a/	.	2ee\	.	1r	.	.	4c\	.	.	4a\	.	.	1cc	.	.	1r	.	1r	.	2a\	.	2ff\	.
!	!	!	!	!	!	!	!	!	!	!	!LO:TX:a:t=SIC&colon;s=4Bn	!	!	!	!	!	!	!	!	!	!	!	!	!	!	!	!
4Bn\	.	4Bn\	.	4e/	.	.	.	.	.	.	4B-\	.	.	4e\	.	.	.	.	.	.	.	.	.	.	.	.	.
4c\	.	2A\	.	2a/	.	2r	.	.	.	.	4c\	.	.	2a\	.	.	.	.	.	.	.	.	.	2r	.	2r	.
4A\	.	.	.	.	.	.	.	.	.	.	4A\	.	.	.	.	.	.	.	.	.	.	.	.	.	.	.	.
=22	=22	=22	=22	=22	=22	=22	=22	=22	=22	=22	=22	=22	=22	=22	=22	=22	=22	=22	=22	=22	=22	=22	=22	=22	=22	=22	=22
2Bn\	.	1r	.	2a/	.	1r	.	1r	.	.	2Bn\	.	.	2a\	.	.	2dd#X\	.	.	1r	.	1r	.	1r	.	1r	.
2e\	.	.	.	2gn/	.	.	.	.	.	.	[2e\	.	.	2gn\	.	.	2ee\	-men	.	.	.	.	.	.	.	.	.
*clefF4	*	*	*	*	*	*	*	*	*	*	*	*	*	*	*	*	*	*	*	*	*	*	*	*	*	*	*
=23	=23	=23	=23	=23	=23	=23	=23	=23	=23	=23	=23	=23	=23	=23	=23	=23	=23	=23	=23	=23	=23	=23	=23	=23	=23	=23	=23
1Bn	.	4r	.	1f#X	.	1r	.	1Bn	a-	.	2e\]	.	.	1f#X	.	.	1r	.	.	1r	.	1r	.	1r	.	1r	.
.	.	4f#X\	.	.	.	.	.	.	.	.	.	.	.	.	.	.	.	.	.	.	.	.	.	.	.	.	.
.	.	4bn\	.	.	.	.	.	.	.	.	2d#X\	.	.	.	.	.	.	.	.	.	.	.	.	.	.	.	.
.	.	4a\	.	.	.	.	.	.	.	.	.	.	.	.	.	.	.	.	.	.	.	.	.	.	.	.	.
=24	=24	=24	=24	=24	=24	=24	=24	=24	=24	=24	=24	=24	=24	=24	=24	=24	=24	=24	=24	=24	=24	=24	=24	=24	=24	=24	=24
!!pagebreak:original
4E\	.	4g\	.	2e/	.	1ee	.	4E\	.	.	2e\	-men	.	2g\	-men	.	1ee	a-	.	1r	.	1r	.	1r	.	2ee\	.
!	!	!LO:TX:a:t=SIC&colon;s=4f+	!	!	!	!	!	!	!	!	!	!	!	!	!	!	!	!	!	!	!	!	!	!	!	!	!
4F#X\	.	4f\	.	.	.	.	.	4F#X\	.	.	.	.	.	.	.	.	.	.	.	.	.	.	.	.	.	.	.
4G\	.	2e\	.	2r	.	.	.	4G\	.	.	2r	.	.	2r	.	.	.	.	.	.	.	.	.	.	.	2ee\	.
4A\	.	.	.	.	.	.	.	4A\	.	.	.	.	.	.	.	.	.	.	.	.	.	.	.	.	.	.	.
=25	=25	=25	=25	=25	=25	=25	=25	=25	=25	=25	=25	=25	=25	=25	=25	=25	=25	=25	=25	=25	=25	=25	=25	=25	=25	=25	=25
1Bn	.	1r	.	4r	.	1dd#X	.	1Bn	.	.	1r	.	.	4r	.	.	1dd#X	-men	.	1r	.	1r	.	4r	.	1dd#X	.
.	.	.	.	4f#X/	.	.	.	.	.	.	.	.	.	4f#X\	a	.	.	.	.	.	.	.	.	4f#X/	.	.	.
!	!	!	!	!	!	!	!	!	!	!	!	!	!	!	!	!	!	!	!	!	!	!	!	!LO:TX:a:t=SIC&colon;s=4cc+	!	!	!
.	.	.	.	4bn/	.	.	.	.	.	.	.	.	.	4bn\	.	.	.	.	.	.	.	.	.	4b-/	.	.	.
.	.	.	.	4a/	.	.	.	.	.	.	.	.	.	4a\	.	.	.	.	.	.	.	.	.	4a/	.	.	.
=26	=26	=26	=26	=26	=26	=26	=26	=26	=26	=26	=26	=26	=26	=26	=26	=26	=26	=26	=26	=26	=26	=26	=26	=26	=26	=26	=26
2E\	.	1r	.	4g/	.	4ee\	.	2E\	-men	.	1r	.	.	4g\	.	.	4ee\	a-	.	1r	.	1r	.	4g/	.	4ee\	.
!	!	!	!	!	!	!	!	!	!	!	!	!	!	!	!	!	!	!	!	!	!	!	!	!LO:TX:a:t=SIC&colon;s=4g+	!	!	!
.	.	.	.	4f#X/	.	4dd\	.	.	.	.	.	.	.	4f#X\	.	.	4dd\	.	.	.	.	.	.	4f/	.	4dd\	.
2r	.	.	.	2e/	.	4ee\	.	2r	.	.	.	.	.	2e\	men	.	4ee\	.	.	.	.	.	.	2e/	.	4ee\	.
!	!	!	!	!	!	!	!	!	!	!	!	!	!	!	!	!	!	!	!	!	!	!	!	!	!	!LO:TX:a:t=SIC&colon;s=4gg+	!
.	.	.	.	.	.	4ff#X\	.	.	.	.	.	.	.	.	.	.	4ff#X\	.	.	.	.	.	.	.	.	4ff\	.
=27	=27	=27	=27	=27	=27	=27	=27	=27	=27	=27	=27	=27	=27	=27	=27	=27	=27	=27	=27	=27	=27	=27	=27	=27	=27	=27	=27
1A	.	1a	.	[1cc	.	2gg\	.	1A	a-	.	1r	.	.	[1cc	a-	.	2gg\	.	.	1r	.	1r	.	1cc	.	2gg\	.
!	!	!	!	!	!	!LO:TX:a:t=SIC&colon;s=4ff+	!	!	!	!	!	!	!	!	!	!	!LO:TX:a:t=SIC&colon;s=4ff+	!	!	!	!	!	!	!	!	!	!
.	.	.	.	.	.	4ff\	.	.	.	.	.	.	.	.	.	.	4ff\	.	.	.	.	.	.	.	.	4ff#X\	.
.	.	.	.	.	.	4ee\	.	.	.	.	.	.	.	.	.	.	4ee\	.	.	.	.	.	.	.	.	4ee\	.
=28	=28	=28	=28	=28	=28	=28	=28	=28	=28	=28	=28	=28	=28	=28	=28	=28	=28	=28	=28	=28	=28	=28	=28	=28	=28	=28	=28
!	!	!	!	!	!	!	!	!	!	!	!	!	!	!	!	!	!	!	!	!	!	!	!	!	!	!LO:TX:a:t=SIC&colon;s=1ee+	!
1Bn	.	1f#X	.	2cc\]	.	1dd#X	.	1Bn	.	.	1f#X	a-	.	2cc\]	.	.	1dd#X	.	.	1r	.	1r	.	2cc\	.	1ee	.
.	.	.	.	4bn\	.	.	.	.	.	.	.	.	.	4bn\	.	.	.	.	.	.	.	.	.	4bX\	.	.	.
.	.	.	.	4a\	.	.	.	.	.	.	.	.	.	4a\	.	.	.	.	.	.	.	.	.	4a\	.	.	.
=29	=29	=29	=29	=29	=29	=29	=29	=29	=29	=29	=29	=29	=29	=29	=29	=29	=29	=29	=29	=29	=29	=29	=29	=29	=29	=29	=29
1E	.	1bn	.	1g#X	.	4ee\	.	1E	.	.	1e	.	.	1g#X	.	.	4ee\	.	.	1r	.	1r	.	1g#X	.	4ee\	.
.	.	.	.	.	.	4ffn\	.	.	.	.	.	.	.	.	.	.	4ff\	.	.	.	.	.	.	.	.	4ff\	.
.	.	.	.	.	.	4ee\	.	.	.	.	.	.	.	.	.	.	4ee\	.	.	.	.	.	.	.	.	4ee\	.
.	.	.	.	.	.	4dd\	.	.	.	.	.	.	.	.	.	.	4ddn\	.	.	.	.	.	.	.	.	4dd\	.
=30	=30	=30	=30	=30	=30	=30	=30	=30	=30	=30	=30	=30	=30	=30	=30	=30	=30	=30	=30	=30	=30	=30	=30	=30	=30	=30	=30
!	!	!	!	!	!	!	!	!	!	!	!	!	!	!	!	!	!	!	!	!	!	!	!	!	!	!LO:TX:a:t=SIC&colon;s=1dd+	!
1A	.	1e	.	4a/	.	1cc#X	.	1A	.	.	1e	.	.	4a\	.	.	1cc#X	.	.	1r	.	1r	.	4a\	.	1dd#X	.
.	.	.	.	4b-X/	.	.	.	.	.	.	.	.	.	4b-X\	.	.	.	.	.	.	.	.	.	4b-\	.	.	.
.	.	.	.	4a/	.	.	.	.	.	.	.	.	.	4a\	.	.	.	.	.	.	.	.	.	4a\	.	.	.
.	.	.	.	4g/	.	.	.	.	.	.	.	.	.	4g\	.	.	.	.	.	.	.	.	.	4g\	.	.	.
=31	=31	=31	=31	=31	=31	=31	=31	=31	=31	=31	=31	=31	=31	=31	=31	=31	=31	=31	=31	=31	=31	=31	=31	=31	=31	=31	=31
!	!	!	!	!	!	!	!	!	!	!	!	!	!	!	!	!	!	!	!	!	!	!	!	!LO:TX:a:t=SIC&colon;s=1g+	!	!	!
1D	.	1a	.	1f#X	.	4dd\	.	1D	.	.	[1d	.	.	1f#X	.	.	4dd\	.	.	1r	.	1r	.	1g#X	.	4dd\	.
!	!	!	!	!	!	!	!	!	!	!	!	!	!	!	!	!	!	!	!	!	!	!	!	!	!	!LO:TX:a:t=SIC&colon;s=4ff	!
.	.	.	.	.	.	4ee\	.	.	.	.	.	.	.	.	.	.	4ee\	.	.	.	.	.	.	.	.	4ff\	.
.	.	.	.	.	.	4dd\	.	.	.	.	.	.	.	.	.	.	4dd\	.	.	.	.	.	.	.	.	4dd\	.
!	!	!	!	!	!	!	!	!	!	!	!	!	!	!	!	!	!	!	!	!	!	!	!	!	!	!LO:TX:a:t=SIC&colon;s=4ddn	!
.	.	.	.	.	.	4ccn\	.	.	.	.	.	.	.	.	.	.	4ccn\	.	.	.	.	.	.	.	.	4dd\	.
=32	=32	=32	=32	=32	=32	=32	=32	=32	=32	=32	=32	=32	=32	=32	=32	=32	=32	=32	=32	=32	=32	=32	=32	=32	=32	=32	=32
1G	.	1d	.	4g/	.	1bn	.	1G	.	.	1d]	.	.	4g\	.	.	1bn	.	.	1r	.	1r	.	4g\	.	1bX	.
.	.	.	.	4a/	.	.	.	.	.	.	.	.	.	4a\	.	.	.	.	.	.	.	.	.	4a\	.	.	.
.	.	.	.	4g/	.	.	.	.	.	.	.	.	.	4g\	.	.	.	.	.	.	.	.	.	4g\	.	.	.
.	.	.	.	4fn/	.	.	.	.	.	.	.	.	.	4fn\	.	.	.	.	.	.	.	.	.	4f\	.	.	.
=33	=33	=33	=33	=33	=33	=33	=33	=33	=33	=33	=33	=33	=33	=33	=33	=33	=33	=33	=33	=33	=33	=33	=33	=33	=33	=33	=33
1C	.	1g	.	2e/	.	4cc\	.	1C	.	.	1c	.	.	2e\	-men	.	4cc\	.	.	1r	.	1r	.	2e/	.	4cc\	.
.	.	.	.	.	.	4dd\	.	.	.	.	.	.	.	.	.	.	4dd\	.	.	.	.	.	.	.	.	4dd\	.
.	.	.	.	2r	.	4cc\	.	.	.	.	.	.	.	2r	.	.	4cc\	.	.	.	.	.	.	2r	.	4cc\	.
.	.	.	.	.	.	4b-X\	.	.	.	.	.	.	.	.	.	.	4b-X\	.	.	.	.	.	.	.	.	4b-\	.
=34	=34	=34	=34	=34	=34	=34	=34	=34	=34	=34	=34	=34	=34	=34	=34	=34	=34	=34	=34	=34	=34	=34	=34	=34	=34	=34	=34
!!pagebreak:original
4F\	.	4a\	.	1ff	.	4a/	.	4F\	.	.	2c\	-men	.	1f	a-	.	4a\	.	.	1f	f	1a	.	1ff	.	4a\	.
4G\	.	4b-\	.	.	.	4g/	.	4G\	.	.	.	.	.	.	.	.	4g\	.	.	.	.	.	.	.	.	4g\	.
4A\	.	4cc\	.	.	.	2f/	.	4A\	.	.	2r	.	.	.	.	.	2f/	-men	.	.	.	.	.	.	.	2f\	.
4B-X\	.	4dd\	.	.	.	.	.	4B-X\	.	.	.	.	.	.	.	.	.	.	.	.	.	.	.	.	.	.	.
=35	=35	=35	=35	=35	=35	=35	=35	=35	=35	=35	=35	=35	=35	=35	=35	=35	=35	=35	=35	=35	=35	=35	=35	=35	=35	=35	=35
4c\	.	4g\	.	1ee	.	1r	.	2c\	-men	.	4r	.	.	1e	-men	.	1cc	a-	.	1c	.	1g	.	1ee	.	1r	.
*clefC4	*	*	*	*	*	*	*	*	*	*	*	*	*	*	*	*	*	*	*	*	*	*	*	*	*	*	*
4G/	.	4g\	.	.	.	.	.	.	.	.	4G\	a-	.	.	.	.	.	.	.	.	.	.	.	.	.	.	.
4c/	.	4cc\	.	.	.	.	.	2r	.	.	4c\	.	.	.	.	.	.	.	.	.	.	.	.	.	.	.	.
4B-X/	.	4b-X\	.	.	.	.	.	.	.	.	4B-X\	.	.	.	.	.	.	.	.	.	.	.	.	.	.	.	.
=36	=36	=36	=36	=36	=36	=36	=36	=36	=36	=36	=36	=36	=36	=36	=36	=36	=36	=36	=36	=36	=36	=36	=36	=36	=36	=36	=36
4A/	.	4a\	.	4ff\	.	1r	.	1r	.	.	4A/	.	.	4f\	a-	.	2cc\	-men	.	2f\	.	2a\	.	4ff\	.	1r	.
4G/	.	4g\	.	4ee\	.	.	.	.	.	.	4G/	.	.	4e\	.	.	.	.	.	.	.	.	.	4ee\	.	.	.
2F/	.	2f\	.	4ff\	.	.	.	.	.	.	2F/	-men	.	4f\	.	.	2r	.	.	2r	.	2r	.	4ff\	.	.	.
.	.	.	.	4gg\	.	.	.	.	.	.	.	.	.	4g\	.	.	.	.	.	.	.	.	.	4gg\	.	.	.
*clefF4	*	*	*	*	*	*	*	*	*	*	*	*	*	*	*	*	*	*	*	*	*	*	*	*	*	*	*
=37	=37	=37	=37	=37	=37	=37	=37	=37	=37	=37	=37	=37	=37	=37	=37	=37	=37	=37	=37	=37	=37	=37	=37	=37	=37	=37	=37
4F\	.	1r	.	2aa\	.	2r	.	4F\	a-	.	2r	.	.	[1a	.	.	1r	.	.	1r	.	1r	.	2aa\	.	2r	.
4G\	.	.	.	.	.	.	.	4G\	.	.	.	.	.	.	.	.	.	.	.	.	.	.	.	.	.	.	.
4F\	.	.	.	2a/	.	[2aa\	.	4F\	.	.	2A\	a-	.	.	.	.	.	.	.	.	.	.	.	2a\	.	2aa\	.
4E\	.	.	.	.	.	.	.	4E\	.	.	.	.	.	.	.	.	.	.	.	.	.	.	.	.	.	.	.
=38	=38	=38	=38	=38	=38	=38	=38	=38	=38	=38	=38	=38	=38	=38	=38	=38	=38	=38	=38	=38	=38	=38	=38	=38	=38	=38	=38
1D	.	1f	.	[1b-	.	4aa\]	.	1D	.	.	[1B-	.	.	4a\]	.	.	1ff	a-	.	1r	.	1r	.	1b-	.	4aa\	.
.	.	.	.	.	.	4ff\	.	.	.	.	.	.	.	4f\	.	.	.	.	.	.	.	.	.	.	.	4ff\	.
.	.	.	.	.	.	4bb-\	.	.	.	.	.	.	.	4b-\	.	.	.	.	.	.	.	.	.	.	.	4bb-\	.
.	.	.	.	.	.	4aa\	.	.	.	.	.	.	.	4a\	.	.	.	.	.	.	.	.	.	.	.	4aa\	.
=39	=39	=39	=39	=39	=39	=39	=39	=39	=39	=39	=39	=39	=39	=39	=39	=39	=39	=39	=39	=39	=39	=39	=39	=39	=39	=39	=39
4E\	.	[1e	.	1b-]	.	[1gg	.	4E\	.	.	1B-]	.	.	[1g	.	.	[1ee	.	.	1r	.	1r	.	1b-	.	1gg	.
4F\	.	.	.	.	.	.	.	4F\	.	.	.	.	.	.	.	.	.	.	.	.	.	.	.	.	.	.	.
4E\	.	.	.	.	.	.	.	4E\	.	.	.	.	.	.	.	.	.	.	.	.	.	.	.	.	.	.	.
4D\	.	.	.	.	.	.	.	4D\	.	.	.	.	.	.	.	.	.	.	.	.	.	.	.	.	.	.	.
=40	=40	=40	=40	=40	=40	=40	=40	=40	=40	=40	=40	=40	=40	=40	=40	=40	=40	=40	=40	=40	=40	=40	=40	=40	=40	=40	=40
1C#X	.	1e]	.	[1a	.	4gg\]	.	1C#X	.	.	[1A	.	.	4g\]	.	.	1ee]	.	.	1r	.	1r	.	1a	.	4gg\	.
!	!	!	!	!	!	!	!	!	!	!	!	!	!	!	!	!	!	!	!	!	!	!	!	!	!	!LO:TX:a:t=SIC&colon;s=4ff	!
.	.	.	.	.	.	4ee\	.	.	.	.	.	.	.	4e\	.	.	.	.	.	.	.	.	.	.	.	4ff\	.
.	.	.	.	.	.	4aa\	.	.	.	.	.	.	.	4a\	.	.	.	.	.	.	.	.	.	.	.	4aa\	.
.	.	.	.	.	.	4gg\	.	.	.	.	.	.	.	4g\	.	.	.	.	.	.	.	.	.	.	.	4gg\	.
=41	=41	=41	=41	=41	=41	=41	=41	=41	=41	=41	=41	=41	=41	=41	=41	=41	=41	=41	=41	=41	=41	=41	=41	=41	=41	=41	=41
4D\	.	1d	.	1a]	.	[1ff	.	4D\	.	.	1A]	.	.	[1f	.	.	1dd	-men	.	1r	.	1r	.	1a	.	1ff	.
4E\	.	.	.	.	.	.	.	4E\	.	.	.	.	.	.	.	.	.	.	.	.	.	.	.	.	.	.	.
4D\	.	.	.	.	.	.	.	4D\	.	.	.	.	.	.	.	.	.	.	.	.	.	.	.	.	.	.	.
4Cn\	.	.	.	.	.	.	.	4Cn\	.	.	.	.	.	.	.	.	.	.	.	.	.	.	.	.	.	.	.
=42	=42	=42	=42	=42	=42	=42	=42	=42	=42	=42	=42	=42	=42	=42	=42	=42	=42	=42	=42	=42	=42	=42	=42	=42	=42	=42	=42
2.BB-X/	.	2d\	.	2.g/	.	4ff\]	.	2.BB-X/	.	.	2.G\	.	.	1f]	.	.	4r	.	.	1r	.	1r	.	2.g\	.	4ff\	.
.	.	.	.	.	.	4dd\	.	.	.	.	.	.	.	.	.	.	4dd\	a-	.	.	.	.	.	.	.	4dd\	.
.	.	2r	.	.	.	4gg\	.	.	.	.	.	.	.	.	.	.	4gg\	.	.	.	.	.	.	.	.	4gg\	.
4AA/	.	.	.	4a/	.	4ff\	.	4AA/	.	.	4A\	.	.	.	.	.	4ff\	.	.	.	.	.	.	4a\	.	4ff\	.
=43	=43	=43	=43	=43	=43	=43	=43	=43	=43	=43	=43	=43	=43	=43	=43	=43	=43	=43	=43	=43	=43	=43	=43	=43	=43	=43	=43
2GG/	.	2G/	.	2b-\	.	2ee\	.	2GG/	.	.	2B-\	.	.	2g\	.	.	2ee\	.	.	1r	.	1r	.	2b-\	.	2ee\	.
2GG#X/	.	2G#X/	.	2bn\	.	2dd\	.	2GG#X/	.	.	2Bn\	.	.	2f\	.	.	2dd\	.	.	.	.	.	.	2bX\	.	2dd\	.
=44	=44	=44	=44	=44	=44	=44	=44	=44	=44	=44	=44	=44	=44	=44	=44	=44	=44	=44	=44	=44	=44	=44	=44	=44	=44	=44	=44
!	!	!	!	!	!	!	!	!	!	!	!	!	!	!	!	!	!	!	!	!	!	!	!	!LO:TX:a:t=SIC&colon;s=4b	!	!	!
2AA/	.	2A/	.	2e/	.	2cc#X\	.	2AA/	-men	.	2A\	-men	.	2e\	-men	.	2cc#X\	-men	.	2A^/	.	2A/	.	2g/	.	2cc#X\	.
2r	.	2r	.	2r	.	2a/	.	2r	.	.	2r	.	.	2r	.	.	2r	.	.	2r	.	2r	.	2r	.	2r	.
=45	=45	=45	=45	=45	=45	=45	=45	=45	=45	=45	=45	=45	=45	=45	=45	=45	=45	=45	=45	=45	=45	=45	=45	=45	=45	=45	=45
1r	.	1r	.	1r	.	4bn\	.	1r	.	.	1r	.	.	1r	.	.	1r	.	.	1r	.	1r	.	1r	.	1r	.
.	.	.	.	.	.	4a/	.	.	.	.	.	.	.	.	.	.	.	.	.	.	.	.	.	.	.	.	.
.	.	.	.	.	.	4b\	.	.	.	.	.	.	.	.	.	.	.	.	.	.	.	.	.	.	.	.	.
.	.	.	.	.	.	4cc#X\	.	.	.	.	.	.	.	.	.	.	.	.	.	.	.	.	.	.	.	.	.
=46	=46	=46	=46	=46	=46	=46	=46	=46	=46	=46	=46	=46	=46	=46	=46	=46	=46	=46	=46	=46	=46	=46	=46	=46	=46	=46	=46
!!pagebreak:original
1r	.	2r	.	1r	.	[1dd	.	1r	.	.	1r	.	.	1r	.	.	1r	.	.	1r	.	1r	.	1r	.	1r	.
.	.	4d\	.	.	.	.	.	.	.	.	.	.	.	.	.	.	.	.	.	.	.	.	.	.	.	.	.
.	.	4e\	.	.	.	.	.	.	.	.	.	.	.	.	.	.	.	.	.	.	.	.	.	.	.	.	.
=47	=47	=47	=47	=47	=47	=47	=47	=47	=47	=47	=47	=47	=47	=47	=47	=47	=47	=47	=47	=47	=47	=47	=47	=47	=47	=47	=47
1r	.	4f\	.	1r	.	1dd]	.	1r	.	.	1r	.	.	1r	.	.	1r	.	.	1r	.	1r	.	1r	.	1r	.
.	.	4e\	.	.	.	.	.	.	.	.	.	.	.	.	.	.	.	.	.	.	.	.	.	.	.	.	.
.	.	4f\	.	.	.	.	.	.	.	.	.	.	.	.	.	.	.	.	.	.	.	.	.	.	.	.	.
.	.	4g\	.	.	.	.	.	.	.	.	.	.	.	.	.	.	.	.	.	.	.	.	.	.	.	.	.
=48	=48	=48	=48	=48	=48	=48	=48	=48	=48	=48	=48	=48	=48	=48	=48	=48	=48	=48	=48	=48	=48	=48	=48	=48	=48	=48	=48
1r	.	[1a	.	2r	.	1cc#X	.	1r	.	.	1r	.	.	1r	.	.	1r	.	.	1r	.	1r	.	2r	.	1r	.
!	!	!	!	!	!	!	!	!	!	!	!	!	!	!	!	!	!	!	!	!	!	!	!	!LO:TX:a:t=SIC&colon;s=4b	!	!	!
.	.	.	.	2a/	.	.	.	.	.	.	.	.	.	.	.	.	.	.	.	.	.	.	.	2f/	.	.	.
=49	=49	=49	=49	=49	=49	=49	=49	=49	=49	=49	=49	=49	=49	=49	=49	=49	=49	=49	=49	=49	=49	=49	=49	=49	=49	=49	=49
!	!	!	!	!	!	!	!	!	!	!	!	!	!	!	!	!	!	!	!	!	!	!	!	!LO:TX:a:t=SIC&colon;s=4cc+	!	!	!
1r	.	2a\]	.	4bn\	.	4dd\	.	1r	.	.	1r	.	.	1r	.	.	1r	.	.	1r	.	1r	.	4b-\	.	1r	.
!	!	!	!	!	!	!LO:TX:a:t=SIC&colon;s=4cc+	!	!	!	!	!	!	!	!	!	!	!	!	!	!	!	!	!	!	!	!	!
.	.	.	.	4a\	.	4cc\	.	.	.	.	.	.	.	.	.	.	.	.	.	.	.	.	.	4a\	.	.	.
!	!	!	!	!	!	!	!	!	!	!	!	!	!	!	!	!	!	!	!	!	!	!	!	!LO:TX:a:t=SIC&colon;s=4cc+	!	!	!
.	.	2g\	.	4b\	.	4dd\	.	.	.	.	.	.	.	.	.	.	.	.	.	.	.	.	.	4b-\	.	.	.
.	.	.	.	4cc#X\	.	4ee\	.	.	.	.	.	.	.	.	.	.	.	.	.	.	.	.	.	4cc#X\	.	.	.
=50	=50	=50	=50	=50	=50	=50	=50	=50	=50	=50	=50	=50	=50	=50	=50	=50	=50	=50	=50	=50	=50	=50	=50	=50	=50	=50	=50
!	!	!	!	!	!	!	!	!	!	!	!	!	!	!	!	!	!	!	!	!	!	!	!	!LO:TX:a:t=SIC&colon;s=1ee	!	!	!
2r	.	2f\	.	[1dd	.	[1ff	.	1r	.	.	1r	.	.	1r	.	.	1r	.	.	1r	.	1r	.	1cc	.	2r	.
!LO:TX:a:t=Solo	!	!	!	!	!	!	!	!	!	!	!	!	!	!	!	!	!	!	!	!	!	!	!	!	!	!LO:TX:a:t=SIC&colon;s=4gg	!
4D\	.	4f\	.	.	.	.	.	.	.	.	.	.	.	.	.	.	.	.	.	.	.	.	.	.	.	4ee\	.
4E\	.	4g\	.	.	.	.	.	.	.	.	.	.	.	.	.	.	.	.	.	.	.	.	.	.	.	4gg\	.
=51	=51	=51	=51	=51	=51	=51	=51	=51	=51	=51	=51	=51	=51	=51	=51	=51	=51	=51	=51	=51	=51	=51	=51	=51	=51	=51	=51
!	!	!	!	!	!	!	!	!	!	!	!	!	!	!	!	!	!	!	!	!	!	!	!	!LO:TX:a:t=SIC&colon;s=1ee	!	!	!
4F\	.	4a\	.	1dd]	.	1ff]	.	1r	.	.	1r	.	.	1r	.	.	1r	.	.	1r	.	1r	.	1cc	.	4aa\	.
4E\	.	4g\	.	.	.	.	.	.	.	.	.	.	.	.	.	.	.	.	.	.	.	.	.	.	.	4gg\	.
4F\	.	4a\	.	.	.	.	.	.	.	.	.	.	.	.	.	.	.	.	.	.	.	.	.	.	.	4aa\	.
4G\	.	4b-\	.	.	.	.	.	.	.	.	.	.	.	.	.	.	.	.	.	.	.	.	.	.	.	4bb-\	.
=52	=52	=52	=52	=52	=52	=52	=52	=52	=52	=52	=52	=52	=52	=52	=52	=52	=52	=52	=52	=52	=52	=52	=52	=52	=52	=52	=52
!	!	!	!	!	!	!	!	!	!	!	!	!	!	!	!	!	!	!	!	!	!	!LO:TX:a:t=problem&colon; brak taktu	!	!	!	!	!
4A\	.	4a\	.	2cc#X\	.	2ee\	.	1r	.	.	1r	.	.	1r	.	.	1r	.	.	1A	.	1r	.	4cc#X\	.	2ee\	.
!	!	!	!	!	!	!	!	!	!	!	!	!	!	!	!	!	!	!	!	!	!	!	!	!LO:TX:a:t=SIC&colon;s=4cc+	!	!	!
4G\	.	4g\	.	.	.	.	.	.	.	.	.	.	.	.	.	.	.	.	.	.	.	.	.	4b-\	.	.	.
2F\	.	2f\	.	[2dd\	.	2aa\	.	.	.	.	.	.	.	.	.	.	.	.	.	.	.	.	.	2dd\	.	2aa\	.
=53	=53	=53	=53	=53	=53	=53	=53	=53	=53	=53	=53	=53	=53	=53	=53	=53	=53	=53	=53	=53	=53	=53	=53	=53	=53	=53	=53
1E	.	2f\	.	4dd\]	.	1gg	.	1r	.	.	1r	.	.	1r	.	.	1r	.	.	2r	.	2r	.	2ee\	.	2gg\	.
.	.	.	.	8cc#X\L	.	.	.	.	.	.	.	.	.	.	.	.	.	.	.	.	.	.	.	.	.	.	.
.	.	.	.	8bn\J	.	.	.	.	.	.	.	.	.	.	.	.	.	.	.	.	.	.	.	.	.	.	.
!	!	!	!	!	!	!	!	!	!	!	!	!	!	!	!	!	!	!	!	!	!	!	!	!LO:TX:a:t=SIC&colon;s=2dd+	!	!	!
.	.	2a\	.	2cc#\	.	.	.	.	.	.	.	.	.	.	.	.	.	.	.	2A^/	.	2A/	.	2cc\	.	2gg\	.
=54	=54	=54	=54	=54	=54	=54	=54	=54	=54	=54	=54	=54	=54	=54	=54	=54	=54	=54	=54	=54	=54	=54	=54	=54	=54	=54	=54
!	!	!	!	!	!	!	!	!	!	!	!	!	!	!	!	!	!	!	!	!	!	!	!	!	!	!LO:TX:a:t=SIC&colon;s=2gg	!
2D\	.	2a\	.	1dd	.	2ff\	.	1r	.	.	1r	.	.	1r	.	.	1dd	a-	.	1A	.	1A	.	2dd\	.	2gg\	.
2r	.	2r	.	.	.	2r	.	.	.	.	.	.	.	.	.	.	.	.	.	.	.	.	.	2r	.	2r	.
=55	=55	=55	=55	=55	=55	=55	=55	=55	=55	=55	=55	=55	=55	=55	=55	=55	=55	=55	=55	=55	=55	=55	=55	=55	=55	=55	=55
1r	.	1r	.	1cc#X	.	4r	.	1r	.	.	1r	.	.	4r	.	.	1cc#X	.	.	1r	.	1r	.	1r	.	1r	.
.	.	.	.	.	.	4ee\	.	.	.	.	.	.	.	4e\	a	.	.	.	.	.	.	.	.	.	.	.	.
.	.	.	.	.	.	4aa\	.	.	.	.	.	.	.	4a\	.	.	.	.	.	.	.	.	.	.	.	.	.
.	.	.	.	.	.	4gg\	.	.	.	.	.	.	.	4g\	.	.	.	.	.	.	.	.	.	.	.	.	.
*clefC4	*	*	*	*	*	*	*	*	*	*	*	*	*	*	*	*	*	*	*	*	*	*	*	*	*	*	*
=56	=56	=56	=56	=56	=56	=56	=56	=56	=56	=56	=56	=56	=56	=56	=56	=56	=56	=56	=56	=56	=56	=56	=56	=56	=56	=56	=56
1d	.	1d	.	4dd\	.	4ff\	.	1r	.	.	1d	a-	.	4f\	.	.	4dd\	.	.	1r	.	(1r	.	1r	.	1r	.
.	.	.	.	4cc\	.	4ee\	.	.	.	.	.	.	.	4e\	.	.	4cc\	.	.	.	.	.	.	.	.	.	.
.	.	.	.	4dd\	.	2dd\	.	.	.	.	.	.	.	2d\	men	.	4dd\	.	.	.	.	.	.	.	.	.	.
.	.	.	.	4ff\	.	.	.	.	.	.	.	.	.	.	.	.	4ff\	.	.	.	.	.	.	.	.	.	.
=57	=57	=57	=57	=57	=57	=57	=57	=57	=57	=57	=57	=57	=57	=57	=57	=57	=57	=57	=57	=57	=57	=57	=57	=57	=57	=57	=57
4c#X\	.	1c#X	.	1ee	.	2aa\	.	4r	.	.	1c#X	-men	.	1a	a-	.	1ee	.	.	1A	.	1A)	.	1r	.	1r	.
*clefF4	*	*	*	*	*	*	*	*	*	*	*	*	*	*	*	*	*	*	*	*	*	*	*	*	*	*	*
4E\	.	.	.	.	.	.	.	4E\	a-	.	.	.	.	.	.	.	.	.	.	.	.	.	.	.	.	.	.
4A\	.	.	.	.	.	2r	.	4A\	.	.	.	.	.	.	.	.	.	.	.	.	.	.	.	.	.	.	.
4G\	.	.	.	.	.	.	.	4G\	.	.	.	.	.	.	.	.	.	.	.	.	.	.	.	.	.	.	.
=58	=58	=58	=58	=58	=58	=58	=58	=58	=58	=58	=58	=58	=58	=58	=58	=58	=58	=58	=58	=58	=58	=58	=58	=58	=58	=58	=58
4F\	.	4d\	.	2dd\	.	1r	.	4F\	.	.	4d\	a-	.	2a\	-men	.	2dd\	-men	.	2A/	.	2A/	.	1r	.	1r	.
4E\	.	4c\	.	.	.	.	.	4E\	.	.	4c\	.	.	.	.	.	.	.	.	.	.	.	.	.	.	.	.
2D\	.	4d\	.	2a\	.	.	.	2D\	-men	.	4d\	.	.	2r	.	.	2r	.	.	2r	.	2r	.	.	.	.	.
.	.	4e\	.	.	.	.	.	.	.	.	4e\	.	.	.	.	.	.	.	.	.	.	.	.	.	.	.	.
=59	=59	=59	=59	=59	=59	=59	=59	=59	=59	=59	=59	=59	=59	=59	=59	=59	=59	=59	=59	=59	=59	=59	=59	=59	=59	=59	=59
!!pagebreak:original
[1G	.	2f\	.	[1b-	.	2r	.	1G	a-	.	2f\	.	.	2r	.	.	2r	.	.	1r	.	1r	.	1r	.	1r	.
.	.	4e\	.	.	.	2dd\	.	.	.	.	4e\	.	.	[2b-\	a-	.	2dd\	a-	.	.	.	.	.	.	.	.	.
.	.	4d\	.	.	.	.	.	.	.	.	4d\	.	.	.	.	.	.	.	.	.	.	.	.	.	.	.	.
=60	=60	=60	=60	=60	=60	=60	=60	=60	=60	=60	=60	=60	=60	=60	=60	=60	=60	=60	=60	=60	=60	=60	=60	=60	=60	=60	=60
4G\]	.	1c#X	.	2b-\]	.	1ee	.	4G\	.	.	1c#X	.	.	2b-\]	.	.	1ee	.	.	1r	.	1r	.	1r	.	1r	.
4B-\	.	.	.	.	.	.	.	4B-\	.	.	.	.	.	.	.	.	.	.	.	.	.	.	.	.	.	.	.
4A\	.	.	.	2a\	.	.	.	4A\	.	.	.	.	.	2a\	.	.	.	.	.	.	.	.	.	.	.	.	.
4G\	.	.	.	.	.	.	.	4G\	.	.	.	.	.	.	.	.	.	.	.	.	.	.	.	.	.	.	.
=61	=61	=61	=61	=61	=61	=61	=61	=61	=61	=61	=61	=61	=61	=61	=61	=61	=61	=61	=61	=61	=61	=61	=61	=61	=61	=61	=61
1F#X	.	2d\	.	4dd\	.	1a	.	2F#X\	-men	.	4d\	.	.	1a	.	.	2dd\	-men	.	1r	.	1r	.	1r	.	1r	.
.	.	.	.	4ee-X\	.	.	.	.	.	.	4e-X\	.	.	.	.	.	.	.	.	.	.	.	.	.	.	.	.
.	.	2r	.	4dd\	.	.	.	2r	.	.	4d\	.	.	.	.	.	2r	.	.	.	.	.	.	.	.	.	.
.	.	.	.	4cc\	.	.	.	.	.	.	4cn\	.	.	.	.	.	.	.	.	.	.	.	.	.	.	.	.
=62	=62	=62	=62	=62	=62	=62	=62	=62	=62	=62	=62	=62	=62	=62	=62	=62	=62	=62	=62	=62	=62	=62	=62	=62	=62	=62	=62
!	!	!	!	!	!	!	!	!	!	!	!	!	!	!LO:TX:a:t==Wi	!	!	!	!	!	!	!	!	!	!	!	!	!
1G	.	1r	.	4b-\	.	1r	.	1G	a-	.	4B-\	.	.	1g	.	.	1r	.	.	1r	.	1r	.	1r	.	1r	.
.	.	.	.	4a\	.	.	.	.	.	.	4A\	.	.	.	.	.	.	.	.	.	.	.	.	.	.	.	.
.	.	.	.	4g\	.	.	.	.	.	.	2G\	-men	.	.	.	.	.	.	.	.	.	.	.	.	.	.	.
.	.	.	.	4b-\	.	.	.	.	.	.	.	.	.	.	.	.	.	.	.	.	.	.	.	.	.	.	.
=63	=63	=63	=63	=63	=63	=63	=63	=63	=63	=63	=63	=63	=63	=63	=63	=63	=63	=63	=63	=63	=63	=63	=63	=63	=63	=63	=63
!	!	!	!	!	!	!	!	!	!	!	!	!	!	!LO:TX:a:t==De	!	!	!	!	!	!	!	!	!	!	!	!	!
1F#X	.	[1d	.	2a/	.	4r	.	1F#X	-men	.	1r	.	.	1d	.	.	4r	.	.	1r	.	1r	.	1r	.	1r	.
.	.	.	.	.	.	4a\	.	.	.	.	.	.	.	.	.	.	4a\	a-	.	.	.	.	.	.	.	.	.
.	.	.	.	2r	.	4dd\	.	.	.	.	.	.	.	.	.	.	4dd\	.	.	.	.	.	.	.	.	.	.
.	.	.	.	.	.	4cc\	.	.	.	.	.	.	.	.	.	.	4cc\	.	.	.	.	.	.	.	.	.	.
=64	=64	=64	=64	=64	=64	=64	=64	=64	=64	=64	=64	=64	=64	=64	=64	=64	=64	=64	=64	=64	=64	=64	=64	=64	=64	=64	=64
4G\	.	1d]	.	1r	.	4b-\	.	4G\	a-	.	1r	.	.	2d\	-men	.	4b-\	.	.	1r	.	1r	.	1r	.	1r	.
4F\	.	.	.	.	.	4a\	.	4F\	.	.	.	.	.	.	.	.	4a\	.	.	.	.	.	.	.	.	.	.
4G\	.	.	.	.	.	2g\	.	4G\	.	.	.	.	.	2r	.	.	2g\	-men	.	.	.	.	.	.	.	.	.
4A\	.	.	.	.	.	.	.	4A\	.	.	.	.	.	.	.	.	.	.	.	.	.	.	.	.	.	.	.
=65	=65	=65	=65	=65	=65	=65	=65	=65	=65	=65	=65	=65	=65	=65	=65	=65	=65	=65	=65	=65	=65	=65	=65	=65	=65	=65	=65
2B-\	.	1r	.	1e	.	1cc#X	.	2B-\	.	.	1e	a-	.	1r	.	.	1cc#X	a-	.	1r	.	1r	.	1r	.	1r	.
4A\	.	.	.	.	.	.	.	4A\	.	.	.	.	.	.	.	.	.	.	.	.	.	.	.	.	.	.	.
4G\	.	.	.	.	.	.	.	4G\	.	.	.	.	.	.	.	.	.	.	.	.	.	.	.	.	.	.	.
=66	=66	=66	=66	=66	=66	=66	=66	=66	=66	=66	=66	=66	=66	=66	=66	=66	=66	=66	=66	=66	=66	=66	=66	=66	=66	=66	=66
1F#X	.	1r	.	1a	.	4dd\	.	1F#X	.	.	[1d	.	.	1a	a-	.	4dd\	.	.	1r	.	1r	.	1r	.	1r	.
.	.	.	.	.	.	4ee-X\	.	.	.	.	.	.	.	.	.	.	4ee-X\	.	.	.	.	.	.	.	.	.	.
.	.	.	.	.	.	4dd\	.	.	.	.	.	.	.	.	.	.	4dd\	.	.	.	.	.	.	.	.	.	.
.	.	.	.	.	.	4cc\	.	.	.	.	.	.	.	.	.	.	4ccn\	.	.	.	.	.	.	.	.	.	.
=67	=67	=67	=67	=67	=67	=67	=67	=67	=67	=67	=67	=67	=67	=67	=67	=67	=67	=67	=67	=67	=67	=67	=67	=67	=67	=67	=67
1G	.	1r	.	[1d	.	4b-\	.	1G	.	.	1d]	.	.	1g	.	.	4b-\	.	.	1r	.	1r	.	1r	.	1r	.
.	.	.	.	.	.	4a\	.	.	.	.	.	.	.	.	.	.	4a\	.	.	.	.	.	.	.	.	.	.
.	.	.	.	.	.	4b-\	.	.	.	.	.	.	.	.	.	.	4b-\	.	.	.	.	.	.	.	.	.	.
.	.	.	.	.	.	4g\	.	.	.	.	.	.	.	.	.	.	4g\	.	.	.	.	.	.	.	.	.	.
=68	=68	=68	=68	=68	=68	=68	=68	=68	=68	=68	=68	=68	=68	=68	=68	=68	=68	=68	=68	=68	=68	=68	=68	=68	=68	=68	=68
!	!	!	!	!	!	!	!	!	!	!	!	!	!	!LO:TX:a:t=problem&colon; repetycja tt. 66-67	!	!	!	!	!	!	!	!	!	!	!	!	!
2F#X\	.	1r	.	2d/]	.	2g\	.	2F#X\	.	.	2d\	.	.	1a	.	.	2dd\	-men	.	1r	.	1r	.	1r	.	1r	.
2Fn\	.	.	.	2a/	.	[2dd\	.	2Fn\	.	.	2d\	.	.	.	.	.	2r	.	.	.	.	.	.	.	.	.	.
=69	=69	=69	=69	=69	=69	=69	=69	=69	=69	=69	=69	=69	=69	=69	=69	=69	=69	=69	=69	=69	=69	=69	=69	=69	=69	=69	=69
1E	.	1r	.	1g	.	2dd\]	.	1E	.	.	2d\	.	.	1g	.	.	1r	.	.	1r	.	1r	.	1r	.	1r	.
.	.	.	.	.	.	2cc#X\	.	.	.	.	2c#X\	.	.	.	.	.	.	.	.	.	.	.	.	.	.	.	.
=70	=70	=70	=70	=70	=70	=70	=70	=70	=70	=70	=70	=70	=70	=70	=70	=70	=70	=70	=70	=70	=70	=70	=70	=70	=70	=70	=70
!	!	!	!	!	!	!	!	!	!	!	!	!	!	!	!	!	!	!	!	!	!	!	!	!LO:TX:a:t=problem&colon; brak taktu	!	!LO:TX:a:t=SIC&colon;s=1ee	!
2D\	.	1r	.	4f/	.	1dd	.	2D\	-men	.	2d\	-men	.	4f\	.	.	1dd	a-	.	1r	.	1r	.	1ryy	.	1ee	.
.	.	.	.	4e/	.	.	.	.	.	.	.	.	.	4e\	.	.	.	.	.	.	.	.	.	.	.	.	.
2r	.	.	.	4f/	.	.	.	2r	.	.	2r	.	.	4f\	.	.	.	.	.	.	.	.	.	.	.	.	.
.	.	.	.	4g/	.	.	.	.	.	.	.	.	.	4g\	.	.	.	.	.	.	.	.	.	.	.	.	.
=71	=71	=71	=71	=71	=71	=71	=71	=71	=71	=71	=71	=71	=71	=71	=71	=71	=71	=71	=71	=71	=71	=71	=71	=71	=71	=71	=71
!	!	!	!	!	!	!	!	!	!	!	!	!	!	!	!	!	!	!	!	!	!	!	!	!	!	!LO:TX:a:t=SIC&colon;s=1dd+	!
4r	.	4r	.	[1a	.	1cc#X	.	4r	.	.	1r	.	.	1a	.	.	1cc#X	-men	.	[1A	.	1A	.	1a	.	1dd#X	.
4E\	.	4e\	.	.	.	.	.	4E\	a-	.	.	.	.	.	.	.	.	.	.	.	.	.	.	.	.	.	.
4A\	.	4a\	.	.	.	.	.	4A\	.	.	.	.	.	.	.	.	.	.	.	.	.	.	.	.	.	.	.
4G\	.	4g\	.	.	.	.	.	4G\	.	.	.	.	.	.	.	.	.	.	.	.	.	.	.	.	.	.	.
=72	=72	=72	=72	=72	=72	=72	=72	=72	=72	=72	=72	=72	=72	=72	=72	=72	=72	=72	=72	=72	=72	=72	=72	=72	=72	=72	=72
!!pagebreak:original
4F\	.	4f\	.	4a/]	.	4dd\	.	4F\	.	.	1A	a	.	4a\	.	.	4dd\	a-	.	2A/]	.	2A/	.	4a\	.	4dd\	.
4E\	.	4e\	.	4g/	.	4cc\	.	4E\	.	.	.	.	.	4g\	.	.	4cc\	.	.	.	.	.	.	4g\	.	4cc\	.
2D\	.	2d\	.	2f/	.	4dd\	.	2D\	-men	.	.	.	.	2f\	-men	.	4dd\	.	.	2r	.	2r	.	2f\	.	4dd\	.
.	.	.	.	.	.	4ee\	.	.	.	.	.	.	.	.	.	.	4ee\	.	.	.	.	.	.	.	.	4ee\	.
=73	=73	=73	=73	=73	=73	=73	=73	=73	=73	=73	=73	=73	=73	=73	=73	=73	=73	=73	=73	=73	=73	=73	=73	=73	=73	=73	=73
[1G	.	[1g	.	1b-	.	2ff\	.	[1G	a-	.	1B-	.	.	[1b-	a-	.	2ff\	.	.	1r	.	1r	.	2b-\	.	2ff\	.
.	.	.	.	.	.	4ee\	.	.	.	.	.	.	.	.	.	.	4ee\	.	.	.	.	.	.	2a\	.	4ee\	.
.	.	.	.	.	.	4dd\	.	.	.	.	.	.	.	.	.	.	4dd\	.	.	.	.	.	.	.	.	4dd\	.
=74	=74	=74	=74	=74	=74	=74	=74	=74	=74	=74	=74	=74	=74	=74	=74	=74	=74	=74	=74	=74	=74	=74	=74	=74	=74	=74	=74
4G\]	.	4g\]	.	2e/	.	1cc#X	.	4G\]	.	.	1e	.	.	2b-\]	.	.	1cc#X	.	.	1r	.	1r	.	2e/	.	2cc#X\	.
4B-\	.	4b-\	.	.	.	.	.	4B-\	.	.	.	.	.	.	.	.	.	.	.	.	.	.	.	.	.	.	.
4A\	.	4a\	.	4f/	.	.	.	4A\	.	.	.	.	.	2a\	.	.	.	.	.	.	.	.	.	4f/	.	2cc#\	.
4G\	.	4g\	.	4g/	.	.	.	4G\	.	.	.	.	.	.	.	.	.	.	.	.	.	.	.	4g/	.	.	.
=75	=75	=75	=75	=75	=75	=75	=75	=75	=75	=75	=75	=75	=75	=75	=75	=75	=75	=75	=75	=75	=75	=75	=75	=75	=75	=75	=75
1F	.	2f\	.	2a/	.	4dd\	.	1F	.	.	1d	.	.	1a	.	.	4dd\	.	.	1A	.	1A	.	1a	.	4dd\	.
.	.	.	.	.	.	4a/	.	.	.	.	.	.	.	.	.	.	4a\	.	.	.	.	.	.	.	.	4a\	.
.	.	2d\	.	2a/	.	2dd\	.	.	.	.	.	.	.	.	.	.	[2dd\	.	.	.	.	.	.	.	.	2dd\	.
=76	=76	=76	=76	=76	=76	=76	=76	=76	=76	=76	=76	=76	=76	=76	=76	=76	=76	=76	=76	=76	=76	=76	=76	=76	=76	=76	=76
!	!	!	!	!	!	!	!	!	!	!	!	!	!	!LO:TX:a:t==Re	!	!	!	!	!	!	!	!	!	!LO:TX:a:t=SIC&colon;s=1a	!	!LO:TX:a:t=SIC&colon;s=2ee	!
1E	.	1e	.	1g	.	2dd\	.	1E	.	.	2B-\	.	.	1g	.	.	2dd\]	.	.	2r	.	2r	.	1f	.	2ee\	.
!	!	!	!	!	!	!	!	!	!	!	!	!	!	!	!	!	!	!	!	!	!	!	!	!	!	!LO:TX:a:t=SIC&colon;s=2dd+	!
.	.	.	.	.	.	2cc#X\	.	.	.	.	2A\	.	.	.	.	.	2cc#X\	.	.	2A/	.	2A/	.	.	.	2dd#X\	.
=77	=77	=77	=77	=77	=77	=77	=77	=77	=77	=77	=77	=77	=77	=77	=77	=77	=77	=77	=77	=77	=77	=77	=77	=77	=77	=77	=77
2D\	.	2d\	.	2f/	.	2dd\	.	2D\	-men	.	2A\	men	.	2f\	-men	.	2dd\	-men	.	1A	.	1A	.	2f/	.	2dd\	.
2F\	.	2f\	.	8a/L	.	8aa\L	.	2F\	a-	.	[2d\	a-	.	2a\	a-	.	[2aa\	a-	.	.	.	.	.	2a/	.	2aa\	.
.	.	.	.	8a/	.	8aa\	.	.	.	.	.	.	.	.	.	.	.	.	.	.	.	.	.	.	.	.	.
.	.	.	.	8a/	.	8aa\	.	.	.	.	.	.	.	.	.	.	.	.	.	.	.	.	.	.	.	.	.
.	.	.	.	8a/J	.	8aa\J	.	.	.	.	.	.	.	.	.	.	.	.	.	.	.	.	.	.	.	.	.
=78	=78	=78	=78	=78	=78	=78	=78	=78	=78	=78	=78	=78	=78	=78	=78	=78	=78	=78	=78	=78	=78	=78	=78	=78	=78	=78	=78
2G\	.	2g\	.	8b-\L	.	8aa'\L	.	2G\	.	.	2d\]	.	.	1b-	.	.	2aa\]	.	.	1r	.	1r	.	1b-	.	2aa\	.
.	.	.	.	8b-\	.	8aa'\	.	.	.	.	.	.	.	.	.	.	.	.	.	.	.	.	.	.	.	.	.
.	.	.	.	8b-\	.	8aa'\	.	.	.	.	.	.	.	.	.	.	.	.	.	.	.	.	.	.	.	.	.
.	.	.	.	8b-\J	.	8aa'\J	.	.	.	.	.	.	.	.	.	.	.	.	.	.	.	.	.	.	.	.	.
2E\	.	2e\	.	8b-\L	.	8gg\L	.	2E\	.	.	2e\	.	.	.	.	.	[2gg\	.	.	.	.	.	.	.	.	2gg\	.
.	.	.	.	8b-\	.	8gg\	.	.	.	.	.	.	.	.	.	.	.	.	.	.	.	.	.	.	.	.	.
.	.	.	.	8b-\	.	8gg\	.	.	.	.	.	.	.	.	.	.	.	.	.	.	.	.	.	.	.	.	.
.	.	.	.	8b-\J	.	8gg\J	.	.	.	.	.	.	.	.	.	.	.	.	.	.	.	.	.	.	.	.	.
=79	=79	=79	=79	=79	=79	=79	=79	=79	=79	=79	=79	=79	=79	=79	=79	=79	=79	=79	=79	=79	=79	=79	=79	=79	=79	=79	=79
2F\	.	2f\	.	8a\L	.	8gg\L	.	2F\	.	.	2c\	.	.	1a	.	.	2gg\]	.	.	1r	.	1r	.	1a	.	2gg\	.
.	.	.	.	8a\	.	8gg\	.	.	.	.	.	.	.	.	.	.	.	.	.	.	.	.	.	.	.	.	.
.	.	.	.	8a\	.	8gg\	.	.	.	.	.	.	.	.	.	.	.	.	.	.	.	.	.	.	.	.	.
.	.	.	.	8a\J	.	8gg\J	.	.	.	.	.	.	.	.	.	.	.	.	.	.	.	.	.	.	.	.	.
2D\	.	2d\	.	8a\L	.	8ff\L	.	2D\	.	.	2d\	.	.	.	.	.	[2ff\	.	.	.	.	.	.	.	.	2ff\	.
.	.	.	.	8a\	.	8ff\	.	.	.	.	.	.	.	.	.	.	.	.	.	.	.	.	.	.	.	.	.
.	.	.	.	8a\	.	8ff\	.	.	.	.	.	.	.	.	.	.	.	.	.	.	.	.	.	.	.	.	.
.	.	.	.	8a\J	.	8ff\J	.	.	.	.	.	.	.	.	.	.	.	.	.	.	.	.	.	.	.	.	.
=80	=80	=80	=80	=80	=80	=80	=80	=80	=80	=80	=80	=80	=80	=80	=80	=80	=80	=80	=80	=80	=80	=80	=80	=80	=80	=80	=80
2E\	.	2e\	.	8g\L	.	8ff\L	.	2E\	.	.	2B-\	.	.	1g	.	.	2ff\]	.	.	1r	.	1r	.	1g	.	2ff\	.
.	.	.	.	8g\	.	8ff\	.	.	.	.	.	.	.	.	.	.	.	.	.	.	.	.	.	.	.	.	.
.	.	.	.	8g\	.	8ff\	.	.	.	.	.	.	.	.	.	.	.	.	.	.	.	.	.	.	.	.	.
.	.	.	.	8g\J	.	8ff\J	.	.	.	.	.	.	.	.	.	.	.	.	.	.	.	.	.	.	.	.	.
2C#X\	.	2c#X\	.	8g\L	.	8ee\L	.	2C#X\	.	.	2A\	.	.	.	.	.	[2ee\	.	.	.	.	.	.	.	.	2ee\	.
.	.	.	.	8g\	.	8ee\	.	.	.	.	.	.	.	.	.	.	.	.	.	.	.	.	.	.	.	.	.
.	.	.	.	8g\	.	8ee\	.	.	.	.	.	.	.	.	.	.	.	.	.	.	.	.	.	.	.	.	.
.	.	.	.	8g\J	.	8ee\J	.	.	.	.	.	.	.	.	.	.	.	.	.	.	.	.	.	.	.	.	.
=81	=81	=81	=81	=81	=81	=81	=81	=81	=81	=81	=81	=81	=81	=81	=81	=81	=81	=81	=81	=81	=81	=81	=81	=81	=81	=81	=81
!!pagebreak:original
2D\	.	2d\	.	8f/L	.	8ee\L	.	2D\	.	.	2A\	-men	.	1f	.	.	2ee\]	.	.	1r	.	1r	.	1f	.	2ee\	.
.	.	.	.	8f/	.	8ee\	.	.	.	.	.	.	.	.	.	.	.	.	.	.	.	.	.	.	.	.	.
.	.	.	.	8f/	.	8ee\	.	.	.	.	.	.	.	.	.	.	.	.	.	.	.	.	.	.	.	.	.
.	.	.	.	8f/J	.	8ee\J	.	.	.	.	.	.	.	.	.	.	.	.	.	.	.	.	.	.	.	.	.
2B-\	.	2b-\	.	8f/L	.	8dd\L	.	2B-\	.	.	2d\	a-	.	.	.	.	[2dd\	.	.	.	.	.	.	.	.	2dd\	.
.	.	.	.	8f/	.	8dd\	.	.	.	.	.	.	.	.	.	.	.	.	.	.	.	.	.	.	.	.	.
.	.	.	.	8f/	.	8dd\	.	.	.	.	.	.	.	.	.	.	.	.	.	.	.	.	.	.	.	.	.
.	.	.	.	8f/J	.	8dd\J	.	.	.	.	.	.	.	.	.	.	.	.	.	.	.	.	.	.	.	.	.
=82	=82	=82	=82	=82	=82	=82	=82	=82	=82	=82	=82	=82	=82	=82	=82	=82	=82	=82	=82	=82	=82	=82	=82	=82	=82	=82	=82
2G\	.	2g\	.	8e/L	.	8dd\L	.	2G\	.	.	2B-\	.	.	1e	.	.	2dd\]	.	.	2r	.	2r	.	1e	.	2dd\	.
.	.	.	.	8e/	.	8dd\	.	.	.	.	.	.	.	.	.	.	.	.	.	.	.	.	.	.	.	.	.
.	.	.	.	8e/	.	8dd\	.	.	.	.	.	.	.	.	.	.	.	.	.	.	.	.	.	.	.	.	.
.	.	.	.	8e/J	.	8dd\J	.	.	.	.	.	.	.	.	.	.	.	.	.	.	.	.	.	.	.	.	.
2A\	.	2a\	.	8e/L	.	8cc#X\L	.	2A\	.	.	2A\	.	.	.	.	.	(2cc#X\	.	.	2A/	.	2A/	.	.	.	2cc#X\	.
.	.	.	.	8e/	.	8cc#\	.	.	.	.	.	.	.	.	.	.	.	.	.	.	.	.	.	.	.	.	.
.	.	.	.	8e/	.	8cc#\	.	.	.	.	.	.	.	.	.	.	.	.	.	.	.	.	.	.	.	.	.
.	.	.	.	8e/J	.	8cc#\J	.	.	.	.	.	.	.	.	.	.	.	.	.	.	.	.	.	.	.	.	.
=83	=83	=83	=83	=83	=83	=83	=83	=83	=83	=83	=83	=83	=83	=83	=83	=83	=83	=83	=83	=83	=83	=83	=83	=83	=83	=83	=83
2D\	.	2d\	.	2f/	.	8dd\L	.	2D\	-men	.	2d\	-men	.	2d\	-men	.	2dd\)	-men	.	2A/	.	2A/	.	2f/	.	2dd\	.
.	.	.	.	.	.	8dd\	.	.	.	.	.	.	.	.	.	.	.	.	.	.	.	.	.	.	.	.	.
.	.	.	.	.	.	8dd\	.	.	.	.	.	.	.	.	.	.	.	.	.	.	.	.	.	.	.	.	.
.	.	.	.	.	.	8dd\J	.	.	.	.	.	.	.	.	.	.	.	.	.	.	.	.	.	.	.	.	.
2F\	.	2f\	.	4aa\	.	4aa\	.	2F\	a-	.	2d\	a-	.	[2a\	a-	.	2a\	a-	.	2r	.	2r	.	2a/	.	2aa\	.
.	.	.	.	4a/	.	4a\	.	.	.	.	.	.	.	.	.	.	.	.	.	.	.	.	.	.	.	.	.
=84	=84	=84	=84	=84	=84	=84	=84	=84	=84	=84	=84	=84	=84	=84	=84	=84	=84	=84	=84	=84	=84	=84	=84	=84	=84	=84	=84
!	!	!	!	!	!	!	!	!	!	!	!	!	!	!	!	!	!	!	!	!	!	!	!	!LO:TX:a:t=SIC&colon;s=2cc+	!	!	!
2G\	.	2g\	.	4aa\	.	4aa\	.	2G\	.	.	2Bn\	.	.	2a\]	.	.	2bn\	.	.	1r	.	1r	.	2b-\	.	2aa\	.
.	.	.	.	4bn\	.	4bn\	.	.	.	.	.	.	.	.	.	.	.	.	.	.	.	.	.	.	.	.	.
2A\	.	2a\	.	4aa\	.	4aa\	.	2A\	.	.	2c#X\	.	.	2g\	.	.	2cc#X\	.	.	.	.	.	.	2cc#X\	.	2gg\	.
.	.	.	.	4cc#X\	.	4cc#X\	.	.	.	.	.	.	.	.	.	.	.	.	.	.	.	.	.	.	.	.	.
=85	=85	=85	=85	=85	=85	=85	=85	=85	=85	=85	=85	=85	=85	=85	=85	=85	=85	=85	=85	=85	=85	=85	=85	=85	=85	=85	=85
!	!	!	!	!	!	!	!	!	!	!	!	!	!	!	!	!	!	!	!	!	!	!	!	!LO:TX:a:t=SIC&colon;s=2ee	!	!	!
2B-\	.	2b-\	.	2dd\	.	2dd\	.	2B-\	-men	.	2d\	-men	.	2f\	-men	.	2dd\	-men	.	2r	.	2r	.	2ee\	.	2ff\	.
!	!	!	!	!	!	!	!	!	!	!	!	!	!	!	!	!	!	!	!	!	!	!	!	!LO:TX:a:t=SIC&colon;s=2b	!	!	!
2F\	.	2f\	.	4aa\	.	4aa\	.	2F\	a-	.	2d\	a-	.	2a\	a-	.	2dd\	a-	.	2f\	.	2a\	.	2b-\	.	2aa\	.
.	.	.	.	4a/	.	4a\	.	.	.	.	.	.	.	.	.	.	.	.	.	.	.	.	.	.	.	.	.
=86	=86	=86	=86	=86	=86	=86	=86	=86	=86	=86	=86	=86	=86	=86	=86	=86	=86	=86	=86	=86	=86	=86	=86	=86	=86	=86	=86
2G\	.	2g\	.	4b-X\	.	4b-\	.	2G\	.	.	2g\	.	.	2b-\	.	.	2ee\	.	.	2g\	.	2b-\	.	2b-\	.	2gg\	.
.	.	.	.	4gg\	.	4gg\	.	.	.	.	.	.	.	.	.	.	.	.	.	.	.	.	.	.	.	.	.
!	!	!	!	!	!	!	!	!	!	!	!	!	!	!	!	!	!	!	!	!	!	!	!	!	!	!LO:TX:a:t=SIC&colon;s=2ff	!
!	!	!	!	!	!	!	!	!	!	!	!	!	!	!	!	!	!	!	!	!	!	!	!	!	!	!LO:TX:a:t=problem&colon; ćwerćnuta	!
2A\	.	2a\	.	4ee\	.	4ee\	.	2A\	.	.	2e\	.	.	(2a\	.	.	2cc#X\	.	.	2a\	.	2a\	.	4g\	.	2ff\	.
.	.	.	.	4cc#X\	.	4cc#X\	.	.	.	.	.	.	.	.	.	.	.	.	.	.	.	.	.	4e\	.	.	.
=87	=87	=87	=87	=87	=87	=87	=87	=87	=87	=87	=87	=87	=87	=87	=87	=87	=87	=87	=87	=87	=87	=87	=87	=87	=87	=87	=87
!	!	!	!	!	!	!	!	!	!	!	!	!	!	!	!	!	!	!	!	!	!	!	!	!	!	!LO:TX:a:t=problem&colon; repetycja tt. 72-75	!
2D\	.	2d\	.	2f/	.	2dd\	.	2D\	-men	.	2d\	-men	.	2d\)	-men	.	2dd\	-men	.	2f\	.	2a\	.	2f\	.	2dd\	.
2F\	.	2f\	.	4aa\	.	4aa\	.	2F\	a-	.	2c\	a-	.	2a\	a-	.	2a\	a-	.	2r	.	2r	.	2a\	.	2aa\	.
.	.	.	.	4a/	.	4a\	.	.	.	.	.	.	.	.	.	.	.	.	.	.	.	.	.	.	.	.	.
=88	=88	=88	=88	=88	=88	=88	=88	=88	=88	=88	=88	=88	=88	=88	=88	=88	=88	=88	=88	=88	=88	=88	=88	=88	=88	=88	=88
!	!	!	!	!	!	!	!	!	!	!	!	!	!	!	!	!	!	!	!	!LO:TX:a:t=problem&colon; repetycja tt. 84-87	!	!	!	!LO:TX:a:t=SIC&colon;s=2cc+	!	!	!
2G\	.	2g\	.	4aa\	.	4aa\	.	2G\	.	.	2Bn\	.	.	2a\	.	.	2bn\	.	.	1r	.	1r	.	2b-\	.	2aa\	.
.	.	.	.	4bn\	.	4bn\	.	.	.	.	.	.	.	.	.	.	.	.	.	.	.	.	.	.	.	.	.
2A\	.	2a\	.	4aa\	.	4aa\	.	2A\	.	.	2c#X\	.	.	2g\	.	.	2cc#X\	.	.	.	.	.	.	2cc#X\	.	2gg\	.
.	.	.	.	4cc#X\	.	4cc#X\	.	.	.	.	.	.	.	.	.	.	.	.	.	.	.	.	.	.	.	.	.
=89	=89	=89	=89	=89	=89	=89	=89	=89	=89	=89	=89	=89	=89	=89	=89	=89	=89	=89	=89	=89	=89	=89	=89	=89	=89	=89	=89
!	!	!	!	!	!	!	!	!	!	!	!	!	!	!	!	!	!	!	!	!	!	!	!	!LO:TX:a:t=SIC&colon;s=2ee	!	!	!
2B-\	.	2b-\	.	2dd\	.	2dd\	.	2B-\	-men	.	2d\	-men	.	2f\	-men	.	2dd\	-men	.	2r	.	2r	.	2ee\	.	2ff\	.
2F\	.	2f\	.	4aa\	.	4aa\	.	2F\	a-	.	2d\	a-	.	2a\	a-	.	2ee\	a-	.	2f\	.	2a\	.	2a\	.	2aa\	.
.	.	.	.	4a/	.	4a\	.	.	.	.	.	.	.	.	.	.	.	.	.	.	.	.	.	.	.	.	.
=90	=90	=90	=90	=90	=90	=90	=90	=90	=90	=90	=90	=90	=90	=90	=90	=90	=90	=90	=90	=90	=90	=90	=90	=90	=90	=90	=90
2G\	.	2g\	.	4b-X\	.	4b-\	.	2F\	.	.	2g\	.	.	2b-\	.	.	2ee\	.	.	2g\	.	2b-\	.	2b-\	.	2gg\	.
.	.	.	.	4gg\	.	4gg\	.	.	.	.	.	.	.	.	.	.	.	.	.	.	.	.	.	.	.	.	.
!	!	!	!	!	!	!	!	!	!	!	!	!	!	!	!	!	!	!	!	!	!	!	!	!	!	!LO:TX:a:t=SIC&colon;s=2ff	!
!	!	!	!	!	!	!	!	!	!	!	!	!	!	!	!	!	!	!	!	!	!	!	!	!	!	!LO:TX:a:t=problem&colon; ćwerćnuta	!
2A\	.	2a\	.	4ee\	.	4ee\	.	2A\	.	.	2e\	.	.	2a\	.	.	2cc#X\	.	.	2a\	.	2a\	.	4g\	.	2ff\	.
.	.	.	.	4cc#X\	.	4cc#X\	.	.	.	.	.	.	.	.	.	.	.	.	.	.	.	.	.	4e\	.	.	.
=91	=91	=91	=91	=91	=91	=91	=91	=91	=91	=91	=91	=91	=91	=91	=91	=91	=91	=91	=91	=91	=91	=91	=91	=91	=91	=91	=91
!!pagebreak:original
!	!	!	!	!	!	!	!	!	!	!	!	!	!	!	!	!	!	!	!	!	!	!	!	!	!	!LO:TX:a:t=problem&colon; krzyżyk być może odnosi się do t. 76, tak czy inaczej błąd	!
!	!	!	!	!	!	!	!	!	!	!	!	!	!	!	!	!	!	!	!	!	!	!	!	!	!	!LO:TX:a:t=SIC&colon;s=2ee	!
2D\	.	2d\	.	2dd\	.	2dd\	.	2D\	-men	.	2d\	-men	.	2a\	-men	.	2dd\	-men	.	2f\	.	2a\	.	2f\	.	2dd#X\	.
2r	.	2d\	.	2ff\	.	2ddd\	.	2r	.	.	2r	.	.	2r	.	.	2r	.	.	2r	.	2r	.	2ff\	.	2ff\	.
=92	=92	=92	=92	=92	=92	=92	=92	=92	=92	=92	=92	=92	=92	=92	=92	=92	=92	=92	=92	=92	=92	=92	=92	=92	=92	=92	=92
2A^\	.	2r	.	2r	.	2r	.	2A^\	a-	.	2e^\	a-	.	2a^\	a-	.	2cc#X^\	a-	.	2A^/	.	2A^/	.	2r	.	2r	.
2r	.	2A^/	.	2ee^\	.	2ccc#X^\	.	2r	.	.	2r	.	.	2r	.	.	2r	.	.	2r	.	2r	.	2cc#X^\	.	2ff^\	.
=93	=93	=93	=93	=93	=93	=93	=93	=93	=93	=93	=93	=93	=93	=93	=93	=93	=93	=93	=93	=93	=93	=93	=93	=93	=93	=93	=93
2D^\	.	2r	.	2r	.	2r	.	2D^\	-men	.	2f^\	-men	.	2a^\	-men	.	2dd^\	-men	.	2A^/	.	2A^/	.	2r	.	2r	.
!	!	!	!	!	!	!	!	!	!	!	!	!	!	!	!	!	!	!	!	!	!	!	!	!	!	!LO:TX:a:t=SIC&colon;s=2ff	!
2r	.	2f^\	.	2f^/	.	2dd^\	.	2r	.	.	2r	.	.	2r	.	.	2r	.	.	2r	.	2r	.	2dd^\	.	2ff^\	.
=94	=94	=94	=94	=94	=94	=94	=94	=94	=94	=94	=94	=94	=94	=94	=94	=94	=94	=94	=94	=94	=94	=94	=94	=94	=94	=94	=94
2A^\	.	2r	.	2r	.	2r	.	2A^\	a-	.	2c#X^\	a-	.	2a^\	a-	.	2ee^\	a-	.	2A^/	.	2A^/	.	2r	.	2r	.
!	!	!	!	!	!	!	!	!	!	!	!	!	!	!	!	!	!	!	!	!	!	!	!	!LO:TX:a:t=SIC&colon;s=2dd+	!	!LO:TX:a:t=SIC&colon;s=2ff	!
2r	.	2A^/	.	2e^/	.	2cc#X^\	.	2r	.	.	2r	.	.	2r	.	.	2r	.	.	2r	.	2r	.	2cc^\	.	2ff^\	.
=95	=95	=95	=95	=95	=95	=95	=95	=95	=95	=95	=95	=95	=95	=95	=95	=95	=95	=95	=95	=95	=95	=95	=95	=95	=95	=95	=95
!	!	!	!	!LO:TX:b:t=Gostyń 23./3. 1840.\nBiałaszewski	!	!	!	!LO:TX:b:t=Gostyń 3./2/ 1840.\nBiałaszewski	!	!	!	!	!	!	!	!	!	!	!	!	!	!	!	!	!	!	!
!LO:TX:b:t=Gostyń. 9./2. 1840.\nBiałaszewski	!	!LO:TX:b:t=Gostyń 11./3. 1840.\nBiałaszewski	!LO:DY:a	!LO:TX:a:t=problem&colon; krzyżyk skreślony ołówkiem	!	!LO:TX:b:t=Gostyń 3./3. 1840.\nBiałaszewski	!	!LO:TX:a:t=Finis	!	!LO:DY:a	!LO:TX:b:t=Gostyn 5./3. 1840.\nBiałaszewski	!	!LO:DY:a	!LO:TX:b:t=Gostyń 4./2. 1840.\nBiałaszewski	!	!LO:DY:a	!LO:TX:b:t=Gostyń 4./2. 1840. \nBiałaszewski	!	!	!LO:TX:b:t=Gostyń 5./2. 1840.\nBiałaszewski	!	!LO:TX:b:t=w Gostyniu 5./2. 1840.\nBiałaszewski	!	!LO:TX:b:t=Gostyń 3./2. 1840.\nBiałaszewski	!LO:DY:a	!LO:TX:b:t=Gostyń 3./2. 1840.\nBiałaszewski	!LO:DY:a
1D	<[	1A^	<[	1f#X^	.	1dd^	.	1D	-men	<[	1d	-men	<[	1a	-men	<[	1ff#X	-men	<[	1A	<[	1A	<[	2dd\	<	1ff#X	<[
.	.	.	.	.	.	.	.	.	.	.	.	.	.	.	.	.	.	.	.	.	.	.	.	2r	[	.	.
==	==	==	==	==	==	==	==	==	==	==	==	==	==	==	==	==	==	==	==	==	==	==	==	==	==	==	==
*-	*-	*-	*-	*-	*-	*-	*-	*-	*-	*-	*-	*-	*-	*-	*-	*-	*-	*-	*-	*-	*-	*-	*-	*-	*-	*-	*-
!!!system-decoration: s1,s2,s3,s4,s5,s6,s7,s8,s9,s10,s11,s12
!!!ENC: Krzysztof Stępień
!!!END: 2020-03-16
